X: 35552
T: Rusty Anvil, The
R: jig
M: 6/8
K: Dmajor
d2 B2|:AFA DFA|~G3 EFG|AGA BAF|ABd AdB|
AFA DFA|GFG EFG|AdA BAF|1 GEC D3:|2 GEC DBc||
|:dcd efg|fed cBA|dcd eag|fec d3|
dcd efg|fdB AFA|AGA BGE|EDC D3:|
|:AGA d2c|BAB dAF|~A3 BAG|GFG EFG|
AGA d2c|BAB dAF|AdA BAF|GEC D3:|

